logos/snowflake-icon.svg

<?xml version="1.0" encoding="UTF-8"?>
<svg width="256px" height="255px" viewBox="0 0 256 255" version="1.1" xmlns="http://www.w3.org/2000/svg" xmlns:xlink="http://www.w3.org/1999/xlink" preserveAspectRatio="xMidYMid">
    <title>snowflake</title>
    <g>
        <path d="M100.211702,161.190001 C108.361987,161.768743 114.819378,168.444268 114.987899,176.631939 L114.991274,176.960242 L114.991274,239.05522 C114.991274,247.806283 107.825253,254.896935 99.0263033,254.896935 C90.2913434,254.896935 83.2133764,247.976113 83.0440909,239.370791 L83.0409894,239.05522 L83.0409894,204.320372 L52.633017,221.703374 C45.0083699,226.099982 35.2570326,223.497571 30.8298183,215.939585 C26.4801783,208.459856 28.963909,198.900148 36.3712482,194.444964 L36.6661961,194.271769 L90.9411815,163.257269 C93.8556716,161.574865 97.0956384,160.926095 100.211702,161.190001 Z M164.664258,163.043676 L165.046166,163.257269 L219.310056,194.271769 C226.956895,198.648217 229.551457,208.361439 225.155681,215.939585 C220.807865,223.399415 211.240891,226.031551 203.652816,221.871133 L203.354331,221.703374 L172.966701,204.320372 L172.966701,239.05522 C172.966701,247.806283 165.822871,254.896935 156.981387,254.896935 C148.246427,254.896935 141.18651,247.976113 141.01766,239.370791 L141.014566,239.05522 L141.014566,176.960242 C141.014566,168.623365 147.516691,161.77646 155.794139,161.190001 C158.765877,160.937569 161.850978,161.520176 164.664258,163.043676 Z M23.6714423,82.5093782 L23.9707798,82.6760126 L78.2050804,113.710673 C82.0183286,115.889734 84.5629599,119.346174 85.6374007,123.214969 C85.9943147,124.461194 86.157053,125.705586 86.2199292,126.951811 C86.2606135,128.6727 86.0349995,130.415582 85.4931558,132.107149 C84.3865987,135.660966 82.0289233,138.838025 78.5671295,140.931444 L78.2050804,141.144111 L23.9707798,172.198931 C16.3146948,176.566215 6.55411109,173.982131 2.16018402,166.425978 C-2.21027119,158.926896 0.27477397,149.413214 7.70459069,144.951419 L7.99656187,144.780154 L38.302823,127.457631 L7.99656187,110.087458 C0.340476864,105.709177 -2.27627683,96.0472707 2.16018402,88.4819536 C6.49704711,81.0040344 16.0620783,78.3770205 23.6714423,82.5093782 Z M253.847506,88.4819536 C258.272871,96.0472707 255.656117,105.709177 248.001882,110.087458 L217.693772,127.457631 L248.001882,144.780154 C255.656117,149.165766 258.272871,158.829505 253.847506,166.425978 C249.431387,173.982131 239.661557,176.566215 232.035061,172.198931 L177.760076,141.144111 C174.141004,139.056684 171.627811,135.783512 170.512685,132.107149 C169.981937,130.415582 169.735981,128.6727 169.797008,126.951811 C169.828446,125.705586 170.011526,124.461194 170.359194,123.214969 C171.44473,119.346174 173.989361,115.891567 177.760076,113.710673 L232.035061,82.6760126 C239.661557,78.3087284 249.431387,80.9056408 253.847506,88.4819536 Z M131.305763,97.8396351 C132.224863,97.8396351 133.49163,98.3564518 134.137035,99.0143852 L156.694746,121.340134 C157.338301,121.977908 157.859803,123.244292 157.859803,124.156968 L157.859803,130.739967 C157.859803,131.632484 157.338301,132.897035 156.694746,133.525646 L134.137035,155.853227 C133.49163,156.509328 132.245205,157.046304 131.305763,157.046304 L124.672339,157.046304 C123.760636,157.046304 122.493868,156.509328 121.839217,155.853227 L99.2926016,133.525646 C98.6471974,132.897035 98.125696,131.632484 98.125696,130.739967 L98.125696,124.156968 C98.125696,123.244292 98.6471974,121.977908 99.2926016,121.340134 L121.839217,99.0143852 C122.493868,98.3564518 123.760636,97.8396351 124.672339,97.8396351 L131.305763,97.8396351 Z M128.113878,116.894044 L127.860525,116.894044 C126.950671,116.894044 125.683903,117.421857 125.049595,118.057798 L118.517882,124.501513 C117.863231,125.16861 117.362072,126.42583 117.362072,127.32751 L117.362072,127.580421 C117.362072,128.471105 117.863231,129.71733 118.517882,130.3661 L125.049595,136.828141 C125.69315,137.465915 126.950671,137.991895 127.860525,137.991895 L128.113878,137.991895 C129.025581,137.991895 130.294198,137.465915 130.937753,136.828141 L137.469466,130.3661 C138.113021,129.71733 138.664111,128.471105 138.664111,127.580421 L138.664111,127.32751 C138.664111,126.42583 138.113021,125.16861 137.469466,124.501513 L130.937753,118.057798 C130.294198,117.421857 129.025581,116.894044 128.113878,116.894044 Z M156.981387,-7.10542736e-15 C165.716347,-7.10542736e-15 172.794314,6.92261098 172.9636,15.505002 L172.966701,15.8197229 L172.966701,50.565567 L203.354331,33.1624058 C210.990074,28.7877905 220.750657,31.3828702 225.155681,38.9463545 C229.494369,46.4459806 227.023107,55.9666686 219.605424,60.4225982 L219.310056,60.5958435 L165.046166,91.6396673 C162.131676,93.3019109 158.900956,93.9598442 155.794139,93.7051012 C147.625604,93.1082736 141.185982,86.4218028 141.017933,78.2426523 L141.014566,77.914701 L141.014566,15.8197229 C141.014566,7.09248469 148.139903,-7.10542736e-15 156.981387,-7.10542736e-15 Z M99.0263033,-7.10542736e-15 C107.719242,-7.10542736e-15 114.818362,6.92261098 114.988164,15.505002 L114.991274,15.8197229 L114.991274,77.914701 C114.991274,86.2424143 108.470657,93.1003159 100.211702,93.7051012 C97.2311194,93.9487684 94.1371736,93.3573972 91.3231413,91.8507937 L90.9411815,91.6396673 L36.6661961,60.5958435 C29.0304534,56.2175629 26.4229462,46.5446598 30.8298183,38.9463545 C35.1995364,31.4810973 44.7559864,28.8560332 52.3348931,32.9954884 L52.633017,33.1624058 L83.0409894,50.565567 L83.0409894,15.8197229 C83.0409894,7.09248469 90.1848195,-7.10542736e-15 99.0263033,-7.10542736e-15 Z" fill="#29B5E8"></path>
    </g>
</svg>

<svg width="256" height="255" xmlns="http://www.w3.org/2000/svg" preserveAspectRatio="xMidYMid">
	<path d="M100.212 161.19c8.15.579 14.607 7.254 14.776 15.442l.003.328v62.095c0 8.751-7.166 15.842-15.965 15.842-8.735 0-15.813-6.92-15.982-15.526l-.003-.316V204.32l-30.408 17.383c-7.625 4.397-17.376 1.795-21.803-5.763-4.35-7.48-1.866-17.04 5.541-21.495l.295-.173 54.275-31.015a15.833 15.833 0 0 1 9.27-2.067Zm64.452 1.854.382.213 54.264 31.015c7.647 4.376 10.241 14.09 5.846 21.668-4.348 7.46-13.915 10.092-21.503 5.931l-.299-.168-30.387-17.383v34.735c0 8.751-7.144 15.842-15.986 15.842-8.735 0-15.794-6.92-15.963-15.526l-.003-.316V176.96c0-8.337 6.502-15.184 14.78-15.77 2.97-.252 6.056.33 8.87 1.854ZM23.671 82.509l.3.167 54.234 31.035c3.813 2.179 6.358 5.635 7.432 9.504.357 1.246.52 2.49.583 3.737.04 1.72-.185 3.464-.727 5.155a15.74 15.74 0 0 1-6.926 8.824l-.362.213L23.971 172.2c-7.656 4.367-17.417 1.783-21.81-5.773-4.371-7.5-1.886-17.013 5.544-21.475l.292-.17 30.306-17.323-30.306-17.37C.34 105.708-2.276 96.047 2.16 88.481c4.337-7.478 13.902-10.105 21.511-5.973Zm230.177 5.973c4.425 7.565 1.808 17.227-5.846 21.605l-30.308 17.37 30.308 17.323c7.654 4.386 10.27 14.05 5.846 21.646-4.417 7.556-14.186 10.14-21.813 5.773l-54.275-31.055c-3.619-2.087-6.132-5.36-7.247-9.037a15.41 15.41 0 0 1-.716-5.155 15.28 15.28 0 0 1 .562-3.737 15.914 15.914 0 0 1 7.401-9.504l54.275-31.035c7.627-4.367 17.396-1.77 21.813 5.806ZM131.306 97.84c.919 0 2.186.516 2.831 1.174l22.558 22.326c.643.638 1.165 1.904 1.165 2.817v6.583c0 .892-.522 2.157-1.165 2.786l-22.558 22.327c-.645.656-1.892 1.193-2.831 1.193h-6.634c-.911 0-2.178-.537-2.833-1.193l-22.546-22.327c-.646-.629-1.167-1.894-1.167-2.786v-6.583c0-.913.521-2.18 1.167-2.817l22.546-22.326c.655-.658 1.922-1.174 2.833-1.174h6.634Zm-3.192 19.054h-.253c-.91 0-2.177.528-2.811 1.164l-6.532 6.444c-.655.667-1.156 1.924-1.156 2.826v.252c0 .891.501 2.137 1.156 2.786l6.532 6.462c.643.638 1.9 1.164 2.81 1.164h.254c.912 0 2.18-.526 2.824-1.164l6.531-6.462c.644-.649 1.195-1.895 1.195-2.786v-.252c0-.902-.551-2.16-1.195-2.826l-6.531-6.444c-.644-.636-1.912-1.164-2.824-1.164ZM156.98 0c8.735 0 15.813 6.923 15.983 15.505l.003.315v34.746l30.387-17.404c7.636-4.374 17.397-1.78 21.802 5.784a15.783 15.783 0 0 1-5.55 21.477l-.296.173-54.264 31.044a16.014 16.014 0 0 1-9.252 2.065c-8.168-.597-14.608-7.283-14.776-15.462l-.003-.328V15.82C141.015 7.092 148.14 0 156.98 0ZM99.026 0c8.693 0 15.792 6.923 15.962 15.505l.003.315v62.095c0 8.327-6.52 15.185-14.78 15.79a16.05 16.05 0 0 1-8.888-1.854l-.382-.211-54.275-31.044c-7.636-4.378-10.243-14.051-5.836-21.65 4.37-7.465 13.926-10.09 21.505-5.95l.298.166 30.408 17.404V15.82C83.041 7.092 90.185 0 99.026 0Z" fill="#29B5E8"/>
</svg>
